icons/op-like-hand-24.svg

<svg width="24" height="24" viewBox="0 0 24 24" fill="none" xmlns="http://www.w3.org/2000/svg">
<path d="M5.6 20H6.4V9.05263H5.6C5.17565 9.05263 4.76869 9.23007 4.46863 9.54593C4.16857 9.86178 4 10.2902 4 10.7368V18.3158C4 18.7625 4.16857 19.1909 4.46863 19.5067C4.76869 19.8226 5.17565 20 5.6 20ZM18.4 9.05263H12.8L13.6976 6.21642C13.7777 5.9633 13.7995 5.69376 13.7613 5.43003C13.723 5.16629 13.6258 4.91589 13.4776 4.69945C13.3294 4.48301 13.1345 4.30673 12.9089 4.18512C12.6833 4.06352 12.4335 4.00007 12.18 4H12L8 8.57937V20H16.8L19.9296 12.7613L20 12.4211V10.7368C20 10.2902 19.8314 9.86178 19.5314 9.54593C19.2313 9.23007 18.8243 9.05263 18.4 9.05263Z" fill="black"/>
</svg>

<svg xmlns="http://www.w3.org/2000/svg" width="24" height="24" viewBox="0 0 24 24"><path d="M5.6 20h.8V9.053h-.8a1.56 1.56 0 0 0-1.131.493A1.73 1.73 0 0 0 4 10.737v7.579c0 .446.169.875.469 1.191.3.316.707.493 1.131.493ZM18.4 9.053h-5.6l.898-2.837a1.757 1.757 0 0 0-.22-1.517 1.646 1.646 0 0 0-.569-.514A1.542 1.542 0 0 0 12.18 4H12L8 8.579V20h8.8l3.13-7.239.07-.34v-1.684a1.73 1.73 0 0 0-.469-1.191 1.56 1.56 0 0 0-1.131-.493Z"/></svg>
